X:415
T: McCann's
S: "Collection of the Dance Music of Ireland" (P. McNulty)
Z: B.Black
L: 1/8
M: 6/8
R: jig
K: D
A/G/|FEF DFA|dce dcB|AdB AFD|EFD E2A/G/|
FEF DFA|dce dcB|Ade faf|gec d2 :|
f/g/|aba fed|gag ecA|fed Bcd|ecB ABc|
ded AFA|Bed cBA|faf gec|Adc d2 :|
